X: 1
T: String Quartet in B\b Major opus 71 no 1 mvt 2
C: Franz Joseph Haydn
%%abc-version 2.0
%%abcx-abcm2ps-target-version 5.9.1 (29 Sep 2008)
%%abc-creator hum2abc beta
%%abcx-conversion-date 2021/02/14 14:38:15
%%abc-copyright Copyright (c) 1994, 2000 Center for Computer Assisted Research in the Humanities
%%abc-edited-by Frances Bennion
%%abcx-initial-encoding-date 1997/04/15
%%gracespace 0 6 6
%%humdrum-veritas 881128777
%%humdrum-veritas-data 3985415782
%%linebreak <none>
%%barnumbers 0
L: 1/8
M: 6/8
N: Derived from op71n1-02.krn
Q: "Adagio"
%%staves [1 2 3 4]
V: 1
V: 2
V: 3 clef=alto
V: 4 clef=bass
K: F
[V:1]f6- [I:setbarnb2]|
[V:2]F6 |
[V:3]A,>B,C D>EF |
[V:4]F,>G,A, B,>CD |
[V:1]fe/>d/c c>Ac |
[V:2]B4 Az |
[V:3]G4 Az |
[V:4]C>DE F2z |
[V:1]F2>^F2 GG |
[V:2]C>B,A, B,3 |
[V:3]A,>G,F, E,3 |
[V:4]z3 C,3 |
[V:1]G2>^G2 AA |
[V:2]D>CB, =B,CC |
[V:3]B,>A,G, F,3 |
[V:4]E,3 F,3 |
[V:1]f2>^f2 gg |
[V:2]c>BA B3 |
[V:3]A>GF E3 |
[V:4]z2>_D2 CC |
[V:1]g2>^g2 aa |
[V:2]B>c_d dcc |
[V:3]G>AB BAA |
[V:4]E3 F3 |
[V:1]a>gf ef/z/a/z/ |
[V:2]f>ed ^cd/z/f/z/ |
[V:3]F>GA BA/z/F/z/ |
[V:4]D,>E,F, G,F,/z/D,/z/ |
[V:1]c>d=B czz |
[V:2]E>FD Ez2 |
[V:3]G2F Ez2 |
[V:4]G,2G,, C,z2 |
[V:1]_e>_dc cBB |
[V:2]c>B_A A3- |
[V:3]C>_D_E F3- |
[V:4]_A,>B,C _D3 |
[V:1]B2c/B/ B2=B |
[V:2]A4 GG |
[V:3]F4 _EE |
[V:4]D3 _E3 |
[V:1]c2_d/c/ c3 |
[V:2]B4 _Ac- |
[V:3]G4 FG |
[V:4]E3 F2_E |
[V:1]f>g_a/=B <c^c/d/e/ |
[V:2]c=BF Gz2 |
[V:3]F4 Ez |
[V:4]_D2>C2 z2 |
[V:1]f6- |
[V:2]F6 |
[V:3]A,>B,C D>EF |
[V:4]F,>G,A, B,>CD |
[V:1]fe/>d/c c>Ac |
[V:2]B4 Az |
[V:3]G4 Az |
[V:4]C>DE F2z |
[V:1]F2>^F2 GG |
[V:2]C>B,A, B,3 |
[V:3]A,>G,F, E,3 |
[V:4]z3 C,3 |
[V:1]^GAA ABB |
[V:2]C2>[F2B,2] [FB,][FB,] |
[V:3]_E,2>D,2 [DF][FD] |
[V:4]F,,2>D,,2 [B,,D,,][D,,B,,] |
[V:1]B3/c//d//(3:2:6_e//f//g//a//b// c'//d'bg |
[V:2][F2B,2]z4 |
[V:3][F2D2]z4 |
[V:4][D,,2B,,2]z4 |
[V:1]e3 f2z |
[V:2]B>AG F2z |
[V:3]G>AB A2z |
[V:4]C3 D2z |
[V:1]d>cB cAB3//G// |
[V:2]A2B GAG |
[V:3]D2D CCD |
[V:4]^F,2G, E,=F,B,, |
[V:1]F>GE Fzz |
[V:2]C2B, A,z2 |
[V:3]A,>B,G, F,z2 |
[V:4]C,2>F,2 z2 |
[V:1]F>GE Fzz |
[V:2]C2B, A,/C/=B,/C/B,/C/ |
[V:3]A,>B,G, F,A,A, |
[V:4]C,2>F,2 F,F, |
[V:1]z/c/=B/c/B/c/ c//f//e//g//f//a//g//b//a/c'/ |
[V:2]E3 F3 |
[V:3]B,3 C3 |
[V:4]G,3 A,3 |
[V:1]z/c/=B/c/B/c/ c//f//e//g//f//_a//g//b//a/c'/ |
[V:2]E3 F3 |
[V:3]B,3 C3 |
[V:4]G,3 _A,3 |
[V:1]c'3 b3- |
[V:2]z/f/e/f/e/f/ z/_g/f/g/d/_e/ |
[V:3]z/_D/C/D/C/D/ z/_E/=D/E/F/_G/ |
[V:4]B,6 |
[V:1]b_a_g f_e_d- |
[V:2]z/c/z/_d/z/c/ z/G/z/_G/z/F/ |
[V:3]z/_G/z/F/z/_E/ z/_D/z/C/z/B,/ |
[V:4]_A,4- A,B, |
[V:1]d/_E/D/E/_G/B/ B/_D/C/D/C/E/ |
[V:2]_D3 _G3 |
[V:3]B,3 _E,3 |
[V:4]_G,3 _A,,3 |
[V:1]_D/_E/F/_G/=G/_A/ =A/B/=B/c/_d/f/ |
[V:2]F2z4 |
[V:3]F,2z4 |
[V:4]_D,2z4 |
[V:1]f/_E/D/E/_G/B/ B/_D/C/D/C/E/ |
[V:2]_D3 _G3 |
[V:3]B,3 _E,3 |
[V:4]_G,,3 _A,,3 |
[V:1]_D2z >_ed/e/_g/c/ |
[V:2]F/_A/G/A/G/A/ __B3 |
[V:3]F,/F/E/F/E/F/ _G3 |
[V:4]_D,3 _A,,3 |
[V:1]_d2z >_e=d/e/_g/c/ |
[V:2]_A/A/G/A/G/A/ __B3 |
[V:3]F/F/E/F/E/F/ _G3 |
[V:4]_D,3 _A,,3 |
[V:1]_d/f/e/f/e/f/ z/f/e/f/e/f/ |
[V:2]_A6- |
[V:3]F6- |
[V:4]_D3 C3 |
[V:1]z/f/e/f/_a/f/ ezc |
[V:2]A2>G2 z_A |
[V:3]F2=B, C/C/B,/C/B,/C/ |
[V:4]=B,2>C2 z2 |
[V:1]Bz_A G/C/=B,/C/_D/C/ |
[V:2]GzF Ez2 |
[V:3]z/C/=B,/C/_D/B,/ Cz_A, |
[V:4]z4 zF,, |
[V:1]z/C/=B,/C/B,/C/ B,//C//D//C//E//D//F//E//G//F//A//G// |
[V:2]z6 |
[V:3]G,zF, E,z2 |
[V:4]E,,zD,, C,,z2 |
[V:1]B/G/E/F/G/A/ B/=B/c/^c/d/e/ |
[V:2]z6 |
[V:3]z6 |
[V:4]z6 |
[V:1]f6- |
[V:2]F6 |
[V:3]A,>B,C D>EF |
[V:4]F,>G,A, B,>CD |
[V:1]fe/>d/c c>Ac |
[V:2]B4 Az |
[V:3]G4 Az |
[V:4]C>DE F2z |
[V:1]F2>^F2 GG |
[V:2]C>B,A, B,3 |
[V:3]A,>G,F, E,3 |
[V:4]z3 C,3 |
[V:1]G2>^F2 AA |
[V:2]D>CB, =B,CC |
[V:3]B,>A,G, F,3 |
[V:4]E,3 F,3 |
[V:1]f2>^f2 gg |
[V:2]c>BA B3 |
[V:3]A>GF E3 |
[V:4]z2>_D2 CC |
[V:1]g2>^g2 aa |
[V:2]B>c_d dcc |
[V:3]G>AB BAA |
[V:4]E3 F3 |
[V:1]a>gf ef/z/a/z/ |
[V:2]f>ed ^cd/z/f/z/ |
[V:3]F>GA BA/z/F/z/ |
[V:4]D,>E,F, G,F,/z/D,/z/ |
[V:1]c>d=B czz |
[V:2]E>FD Ez2 |
[V:3]G2F Ez2 |
[V:4]G,2G,, C,z2 |
[V:1]_e>_dc cBB |
[V:2]c>B_A A3- |
[V:3]C>_D_E F3- |
[V:4]_A,>B,C _D3 |
[V:1]B2c/B/ B2=B |
[V:2]A4 GG |
[V:3]F4 _EE |
[V:4]D3 _E3 |
[V:1]c2_d/c/ c3 |
[V:2]B4 _Ac- |
[V:3]G4 FG |
[V:4]E3 F2_E |
[V:1]f>g_a/=B <cc/d/e/ |
[V:2]c=BF Gz2 |
[V:3]F4 Ez |
[V:4]_D2>C2 z2 |
[V:1]f6- |
[V:2]F6 |
[V:3]A,>B,C D>EF |
[V:4]F,>G,A, B,>CD |
[V:1]fe/>d/c c>Ac |
[V:2]B4 Az |
[V:3]G4 Az |
[V:4]C>DE F2z |
[V:1]F2>^F2 GG |
[V:2]C>B,A, B,3 |
[V:3]A,>G,F, E,3 |
[V:4]z3 C,3 |
[V:1]^GAA A[BD][BD] |
[V:2]C2>[B,2F2] [B,F][FB,] |
[V:3]_E,2>D,2 [FD][FD] |
[V:4]F,,2>D,,2 [B,,D,,][B,,D,,] |
[V:1][B3/D3/]c//d//(3:2:6_e//f//g//a//b//c'//d' bg|
[V:2][B,2F2]z4 |
[V:3][F2D2]z4 |
[V:4][D,,2B,,2]z4 |
[V:1]e3 f2z |
[V:2]B>AG F2z |
[V:3]G>AB A2z |
[V:4]C3 D2z |
[V:1]d>cB cAB3//G// |
[V:2]A2B GAG |
[V:3]D2D CCD |
[V:4]^F,2G, E,=F,B,, |
[V:1]F>GE F/C/=B,/C/B,/C/ |
[V:2]C2B, A,z2 |
[V:3]A,>B,G, F,/A,/^G,/A,/G,/A,/ |
[V:4]C,3 F,,2z |
[V:1][G,3E3] [A,/F/]C/=B,/C/B,/C/|
[V:2]z/_D/C/D/C/D/ C2z |
[V:3]B,/B,/A,/B,/A,/B,/ A,/A,/^G,/A,/G,/A,/ |
[V:4]C,3 F,,2z |
[V:1][G,2E2]>[A,2F2] zA |
[V:2]z/_D/C/D/C/D/ CzC |
[V:3]B,/B,/A,/B,/A,/B,/ A,zF |
[V:4]C,3 z/E,/F,/=B,,/C,/E,,/ |
[V:1]FzF Fzz |]
[V:2]A,zA, A,z2 |]
[V:3]FzC Cz2 |]
[V:4]F,,zF,, F,,z2 |]

